luts/blue.cube
TITLE "Blue"
LUT_3D_SIZE 2
DOMAIN_MIN 0.0 0.0 0.0
DOMAIN_MAX 1.0 1.0 1.0

0.0 0.0 0.0
0.7 0.8 1.0
0.1 0.1 0.2
0.75 0.85 1.0
0.15 0.15 0.3
0.8 0.9 1.0
0.2 0.2 0.4
0.85 0.95 1.0
