luts/cinematic.cube
TITLE "Cinematic"
LUT_3D_SIZE 2
DOMAIN_MIN 0.0 0.0 0.0
DOMAIN_MAX 1.0 1.0 1.0

0.0 0.0 0.0
0.85 0.8 0.75
0.1 0.12 0.15
0.9 0.85 0.8
0.2 0.25 0.3
0.95 0.9 0.85
0.25 0.3 0.35
1.0 0.95 0.9
