luts/warm.cube
TITLE "Warm"
LUT_3D_SIZE 2
DOMAIN_MIN 0.0 0.0 0.0
DOMAIN_MAX 1.0 1.0 1.0

0.0 0.0 0.0
0.9 0.8 0.7
0.1 0.1 0.1
1.0 0.9 0.8
0.2 0.15 0.1
1.0 0.85 0.7
0.3 0.2 0.15
1.0 0.9 0.75
